img/icons/financial/pillow-chart-2.svg

<svg xmlns="http://www.w3.org/2000/svg" viewBox="0 0 46 42"><g data-name="Layer 2"><path data-name="Pillow Chart - 2" d="M42 40V0H32v40h-4V16H18v24h-4V26H4v14H0v2h46v-2zM34 2h6v38h-6zM20 18h6v22h-6zM6 28h6v12H6z" fill="#231f20"/></g></svg>

<svg xmlns="http://www.w3.org/2000/svg" viewBox="0 0 46 42"><defs><style>.cls-1{fill:#231f20;}</style></defs><title>Pillow Chart - 2</title><g id="Layer_2" data-name="Layer 2"><g id="Icons"><g id="Shopping"><path id="Pillow_Chart_-_2" data-name="Pillow Chart - 2" class="cls-1" d="M42,40V0H32V40H28V16H18V40H14V26H4V40H0v2H46V40ZM34,2h6V40H34ZM20,18h6V40H20ZM6,28h6V40H6Z"/></g></g></g></svg>
